X:1
T:V. Le jardin feerique
T:V. Le jardin féerique
T:From "Ma mère l'Oye" Ballet Suite
T:Maurice Ravel 
T:Adp. from arr. for piano by Jacques Charlet
C:Marice Ravel
%%score { { ( 1 2 5 ) | ( 3 4 ) } ( 6 7 ) }
L:1/8
Q:1/4=56
M:3/4
K:C
V:1 treble nm="Piano"
V:2 treble 
V:5 treble 
V:3 bass 
V:4 bass 
V:6 bass nm="Piano"
V:7 bass 
V:1
"^Lent et grave"!pp!!ped! C2 D3!ped-up! C | E2"_cresc." D2 G2!ped! | G2 F3!ped-up! G | %3
 A2!ped! E4!ped-up! |!p! B2!ped!!>(! A3!ped-up! E |!p! D2!ped! E4!ped-up!!>)! | %6
!p!!<(! B2 A3 G!<)! |!p! e2!>(! d4!>)! |!p! f2!<(! c3 A | G2 A4 |!p! f2 c3 A!<)! |!mp! g6 | %12
 z2 !tenuto!g4 |!pp! G2!<(! F2 C2 | B,2 z2 z2!<)! |!p! E2 D3 F | G2 A2 c2 | e2 d3 f | %18
!p! g2!>(! a2 c'2!>)! |!p! !tenuto![egbe']2 !tenuto![egbe']2!pp! !tenuto![dfad']2 | %20
[Q:1/4=56] [egbe']6-!ped!!p! |!>(! [egbe']6!>)!!ped-up! |!pp! e'2!ped! e'3 d'!ped-up! | %23
 (3e'!ped!^f'g' abc'd'!ped-up! |!<(! e'2!ped! e'3 d'!ped-up! | %25
 (3e'!ped!^f'^g' (3ab^c' (3e'd'a!ped-up! | ^f2!ped! ^ge (3f!<)!b!mf!a!ped-up! | %27
!>(! (3^g!ped!^fe g2 (3fd^c!>)!!ped-up! |!p! b2!ped!!>(! b3 a!ped-up! | b2!ped! b3 a!>)!!ped-up! | %30
!pp! (3b!ped!^c'^d' e^f^ga!ped-up! |!pp! b2!ped! b3 a!ped-up! |!pp! (3b!ped!=c'd' e=fga!ped-up! | %33
!<(! b2!ped! b3 a!ped-up! | b2!ped! b3 a!<)!!ped-up! |!f! B2!ped! B3!ped-up!!ped! A!ped-up! | %36
 B2 B3!ped! A!ped-up! |[Q:1/4=50]!>(! B!ped!c!ped! d2!ped-up! e!ped-up!f | %38
[Q:1/4=45] g!ped!a!ped! b2!ped-up![Q:1/4=40] c'!ped-up!!tenuto!d'!>)! | %39
!pp![Q:1/4=56] [dd']2!ped! [cc']3!ped-up!!pp! [Bb] | [Acea]2!ped! [GBdg]2 [EAc]2!ped-up! | %41
 [Gg]2!ped! [Ff]3!ped-up![Q:1/4=52] [Ee] |!>(! [CAc]2 [DGB]2 !tenuto![EG]2!>)! | %43
[Q:1/4=56] E2!ped!!p!!<(! D3 F | [B,EG]2 [DFA]2 [FAc]2!ped-up! | %45
 [EAce]2!ped! [DFAd]3 [FAdf]!ped-up! | [GBeg]2!ped! [Adfa]2 [cfac']2!ped-up! | %47
 [EAce]2!ped! [DFAd]3 [FAdf]!ped-up! | [GBeg]2!ped! [Adfa]2 [cfac']2!<)!!ped-up! | %49
!ff! [c'e'g']!ped!!pp!!-(!g'/!-)!A/ G!-(!G/!-)!f/ g!-(!g/!-)!f'/!ped-up! | %50
!ff!!ped! .[c'e'g']!pp!!-(!g'/!-)!A/ .G!-(!G/!-)!f/ .g!-(!g/!-)!f'/!ped-up! | %51
!ff!!ped! .[c'e'g']!pp!!-(!g'/!-)!A/ .G!-(!G/!-)!f/ .g!-(!g/!-)!f'/!ped-up! | %52
!ff![Q:1/4=62] .[c'e'g']!ped!!pp! !-(!g!8va(! !-)!!>!g''3/2!8va)! z/ z!pp! !-(!G | %53
[Q:1/4=56]!8va(! !-)!.g'3/2!8va)! z/!ped-up!!ped! z !-(!g[Q:1/4=44]!8va(! !-)!.g''3/2!8va)! z/ | %54
[Q:1/4=56] !fermata!z6!ped-up! |] %55
V:2
 z2 B,4 | A,2 B,2 C2 | B,2 C2 D2 | E2 x4 | E4!pp! EC | B,6 | E6 | F4 G2 | [FA]6 | E6 | %10
 [FA]4- [FA]A- | A!p![GB]!>(! [Ac]2 [Bd][ce] | [eg]2 z2 !>!G2-!>)! | A,6 | G,2 A,2 C2 | A,6 | %16
 B,2 A,4 | G2 F4 | [Be]2 d3 f | x6 | x6 | B2 e2 !tenuto!g2 | x6 | x6 | x6 | x6 | x6 | x6 | z6 | %29
 x6 | x6 | x6 | !arpeggio![B=d=g]2 !arpeggio![A=c]2 !arpeggio![Ad]2 | %33
 !arpeggio![Bdg]2 !arpeggio![Ge]2 !arpeggio![FAd]2 | %34
 !arpeggio![Bdg]2 !arpeggio![Ge]2 !arpeggio![FAd]2 | !arpeggio![DG]2 !arpeggio!E2 F2 | EF G2 F2 | %37
 G2 !arpeggio![GB]2 !arpeggio![FAc]2 | !arpeggio![GBd]2 !arpeggio![Beg]2 !arpeggio![Adf]2 | %39
 [eg]4!pp! [dg]2 | x6 | [Ac]4 [GB]2 | x6 | A,2 A,4 | x6 | x6 | x6 | x6 | x6 | x6 | x6 | x6 | %52
 x2!8va(! x3/2!8va)! x5/2 |!8va(! x3/2!8va)! x5/2!8va(! x3/2!8va)! x/ | x6 |] %55
V:3
 E,4 G,2 | F,2 G,2 A,2 | F,4 G,2- | G,2 A,2 B,2 | C4 G,2 | ^F,4 G,2 | C4 B,2 | A,4 B,2 | %8
!pp! C2 D2 E2 | B,4 C2 | A,B, C2 DE | F2 x4 | G,2 z2 z2 |!pp! E,2!<(! D,3 F, | D,2 C,4!<)! | %15
!pp! G,2 F,2 C,2 | D,2 C,4 | z2 z2 C2 | [D,B,]2 [C,A,]4 | %19
 !tenuto![E,,B,,G,]2 !tenuto![E,,B,,G,]2 !tenuto![G,,D,B,]2 | z2 E2[I:staff -1] G2 | %21
[I:staff +1] x6 |[K:treble]!pp! !arpeggio![eg]2 !arpeggio![efa]2 !arpeggio![egbd']2 | %23
 !arpeggio![egbe']2 !arpeggio![efac']2 !arpeggio![dfac']2 | %24
!<(! !arpeggio![^ce^g^c']2 !arpeggio![Bd^fb]2 !arpeggio![E^GBe]2 | %25
 !arpeggio![^C^Ge]2 !arpeggio![^FA^ce^g]2 !arpeggio![Bd^fab]2 | %26
 !arpeggio![A^cd]2 !arpeggio![^GBc]2!<)!!p! !arpeggio![Bcd^fa]2 | %27
!>(! !arpeggio![A^cd^f]2 !arpeggio![^GBc]2 !arpeggio![ABcd]2!>)! | %28
!pp! !arpeggio![e^g]2!>(! !arpeggio![^ceg]2 !arpeggio![Bd^f]2 | %29
 !arpeggio![e^g]2 !arpeggio![^ceg]2 !arpeggio![Bd^f]2!>)! | %30
!pp! !arpeggio![^GB^d]2 !arpeggio![^FA^c]2 !arpeggio![^DFAc]2 | %31
 !arpeggio![^GB^d^g]2 !arpeggio![^FA^c^f]2 !arpeggio![^DFAc]2 | %32
!pp! !arpeggio![=GB=d=g]2 !arpeggio![=FA=c=f]2 !arpeggio![DAf]2 | %33
[K:bass]!<(! !arpeggio![G,DB]2 !arpeggio![E,B,G]2 !arpeggio![D,A,F]2 | %34
 !arpeggio![G,B,DG]2 !arpeggio![E,G,B,E]2 !arpeggio![D,F,A,D]2!<)! |!mp! G,A, B,2 CD | %36
 B,2 B,2 !arpeggio![A,C]2 |!>(! !arpeggio![G,B,D]2 !arpeggio![E,G,B,E]2 !arpeggio![D,F,A,D]2 | %38
 !arpeggio![G,,D,B,]2 !arpeggio![E,,B,,G,]2 !arpeggio![D,,A,,F,]2!>)! | %39
!pp!"_arpéger le moins possible" [C,,G,,E,]4 [E,,B,,G,]2 | [F,,C,A,]2 [G,,D,B,]2 [A,,E,C]2 | %41
 [D,,A,,F,]4 [E,,B,,G,]2 |!>(! [F,,C,A,]2 [G,,D,B,]2 [A,,E,B,]2!>)! |!p!!p! z2!p! !>!C2 !>!G,2 | %44
!p! z2!p! !>!C2 !>!G,2 | z2 !>!C2 !>!G,2 | z2 !>!C2 !>!G,2 | z2 !>!C2 !>!G,2 | z2 !>!C2 !>!G,2 | %49
[K:treble] !>![ceg]2!ff! !>![DFA]3 !>![FAc] | !>![ceg]2 !>![DFA]3 !>![FAc] | %51
 !>![ceg]2 !>![DFA]3 !>![FAc] | [ceg]7/2 !>![ceg]/4!>![ceg]/4 !>![ceg]2- | %53
 [ceg]3/2!>![ceg]/4!>![ceg]/4 !>![ceg]7/2 !>![ceg]/4!>![ceg]/4 | !fermata![ceg]4 z2 |] %55
V:4
 C,,4 E,,2 | D,,2 E,,2 F,,2 | G,,2 A,,2 B,,2 | C,4 G,,2 | A,,6 | E,,6 | A,,2 B,,2 C,2 | D,6 | D,6 | %9
 A,,6 | D,6 | G,6- | x6 | F,,6 | F,,6 | F,,6 | F,,6 | [F,,C,]6 |{/!>!F,,-} F,,6 | x6 | %20
 [E,,B,,G,]6- | [E,,B,,G,]6 |[K:treble] x6 | x6 | x6 | x6 | x6 | x6 | x6 | x6 | x6 | x6 | x6 | %33
[K:bass] x6 | x6 | G,2 !arpeggio!E,2 !arpeggio!D,2 | !arpeggio!G,2 !arpeggio!E,2 D,2 | x6 | x6 | %39
 x6 | x6 | x6 | x6 | !///-!F,,,3 F,,3 | !///-!F,,,3 F,,3 | x6 | x6 | x6 | x6 | %49
[K:treble] x2 !>!C2 x2 | x2 !>!C2 x2 | x2 !>!C2 x2 | x6 | x6 | x6 |] %55
V:5
 x6 | x6 | x6 | x6 | x6 | x6 | x6 | x6 | x6 | x6 | x6 | x6 | x6 | x6 | x6 | x6 | x6 | A4 x2 | %18
 x2 A4 | x6 | x6 | x6 | x6 | x6 | x6 | x6 | x6 | x6 | x6 | x6 | x6 | x6 | x6 | x6 | x6 | x6 | x6 | %37
 x6 | x6 | x6 | x6 | x6 | x6 | x6 | x6 | x6 | x6 | x6 | x6 | x6 | x6 | x6 | %52
 x2!8va(! x3/2!8va)! x5/2 |!8va(! x3/2!8va)! x5/2!8va(! x3/2!8va)! x/ | x6 |] %55
V:6
 z6 | z6 | z6 | z6 | z6 | z6 | z6 | z6 | z6 | z6 | z6 | z6 | z6 | z6 | z6 | z6 | z6 | z6 | z6 | %19
 z6 | z6 | z6 | z6 | z6 | z6 | z6 | z6 | z6 | z6 | z6 | z6 | z6 | z6 | z6 | z6 | z6 | z6 | z6 | %38
 z6 | z6 | z6 | z6 | z6 | z6 | z6 |!mp!!ped!!<(! C,6 | C,6 | C,6 | C,6!ped-up!!<)! | %49
 [C,,,C,,]4 !>![G,,,G,,]2 | !>![C,,,C,,]4 !>![G,,,G,,]2 | !>![C,,,C,,]4 !>![G,,,G,,]2 | %52
!fff! !>![C,,,C,,]2 !>![G,,,G,,]2 !>![C,,,C,,]2 | .[G,,,G,,]2 !>![C,,,C,,]2 !>![G,,,G,,]2 | %54
!ped! !>!!fermata![C,,,C,,]4 z2!ped-up! |] %55
V:7
 x6 | x6 | x6 | x6 | x6 | x6 | x6 | x6 | x6 | x6 | x6 | x6 | x6 | x6 | x6 | x6 | x6 | x6 | x6 | %19
 x6 | x6 | x6 | x6 | x6 | x6 | x6 | x6 | x6 | x6 | x6 | x6 | x6 | x6 | x6 | x6 | x6 | x6 | x6 | %38
 x6 | x6 | x6 | x6 | x6 | x6 | x6 | !///-!F,,,3 F,,3 | !///-!F,,,3 F,,3 | !///-!F,,,3 F,,3 | %48
 !///-!F,,,3 F,,3 | x6 | x6 | x6 | x6 | x6 | x6 |] %55

